!!!!SEGMENT: pl-kk--kk-i-30--001_anonim--missa-sine-credo-kyrie.krn
!!!cenid: 17xx:2227
!!!COM: Anonim
!!!COM-rismid: pe30004985
!!!CDT:
!!!CNT:
!!!OPR: Missa sine Credo
!!!OTL: Kyrie
!!!OMV: 001
!!!PDT:
!!!AGN: Sacred; Mass
!!!SMS-siglum: PL-Kk
!!!SMS-shelfmark: Kk.I.30
!!!SMS-shelfwork: 001-001 M
!!!SMS-variant: Baſso. PL Kk KK 24:0014
!!!SMS-altvar: Baſso PL Kk KK 24:0018
!!!NIFC-rismid: 1001156436
!!!URL-scan: http://repozytorium.nifc.pl/skany/pl-kk-nut--i-30
!!!ONB-nifc: UWAGA: części Mszy: 1. Kyrie, 2. Et in terra, 3. Sanctus, 4. Agnus Dei.
!!!AIN: 1 alto 1 empty 1 tenor 1 vox
!!!key:
**kern	**text	**dynam	**kern	**text	**dynam	**kern	**text	**dynam	**kern	**text	**dynam
*part4	*part4	*part4	*part3	*part3	*part3	*part2	*part2	*part2	*part1	*part1	*part1
*staff4	*staff4	*	*staff3	*staff3	*	*staff2	*staff2	*	*staff1	*staff1	*
*Iempty	*	*	*Itenor	*	*	*Ialto	*	*	*Ivox	*	*
*I"Baſso.	*	*	*I"Tenore	*	*	*I"Alto.	*	*	*I"Canto.	*	*
*I'B	*	*	*I'T	*	*	*I'A	*	*	*I'S	*	*
*clefF4	*	*	*clefC4	*	*	*clefC3	*	*	*clefC1	*	*
*k[f#]	*	*	*k[f#]	*	*	*k[f#]	*	*	*k[f#]	*	*
*G:	*	*	*G:	*	*	*G:	*	*	*G:	*	*
*M2/1	*	*	*M2/1	*	*	*M2/1	*	*	*M2/1	*	*
*met(c|)	*	*	*met(c|)	*	*	*met(c|)	*	*	*	*	*
=1-	=1-	=1-	=1-	=1-	=1-	=1-	=1-	=1-	=1-	=1-	=1-
*2\right	*	*	*2\right	*	*	*2\right	*	*	*2\right	*	*
!	!	!	!LO:TX:t=P:problem=w źródle znaki przykluczowe F# i f#, jeden nad drugim	!	!	!LO:TX:t=P:problem=w źródle znaki przykluczowe F# i f#, jeden nad drugim	!	!	!	!	!
*	*	*	*	*	*	*	*	*	*met(c|)	*	*
!	!	!LO:DY:a:t=Fortè.	!	!	!LO:DY:a:t=Forte	!LO:TX:t=P:problem=kreska pseudotaktowa	!	!LO:DY:a:t=Forte	!	!	!LO:DY:a:t=Forte
00r	.	f	00r	.	f	1r	.	f	2.g/	Ky-	f
!	!	!	!	!	!	!	!	!	!LO:TX:t=P:problem=kreska pseudotaktowa	!	!
.	.	.	.	.	.	.	.	.	4g/	-ri-	.
.	.	.	.	.	.	2.d\	Ky-	.	2a\	-e	.
!	!	!	!	!	!	!	!	!	!LO:TX:t=P:problem=kreska pseudotaktowa	!	!
.	.	.	.	.	.	.	.	.	[<2dd\	e-	.
.	.	.	.	.	.	4d\	-ri-	.	.	.	.
=2-	=2-	=2-	=2-	=2-	=2-	=2-	=2-	=2-	=2-	=2-	=2-
.	.	.	.	.	.	2e\	-e	.	2dd\]	.	.
!	!	!	!	!	!	!	!	!	!LO:TX:t=P:problem=kreska pseudotaktowa	!	!
.	.	.	.	.	.	1a	e-	.	2ccn\	lei-	.
.	.	.	.	.	.	.	.	.	2b,<\	-son	.
.	.	.	.	.	.	1g\	.	.	4ee\	Ky-	.
!	!	!	!	!	!	!	!	!	!LO:TX:t=P:problem=kreska pseudotaktowa	!	!
.	.	.	.	.	.	.	.	.	4dd\	-ri-	.
=3-	=3-	=3-	=3-	=3-	=3-	=3-	=3-	=3-	=3-	=3-	=3-
!LO:TX:t=P:problem=kreska pseudotaktowa	!	!	!	!	!	!	!	!	!	!	!
00r	.	.	0r	.	.	.	.	.	4cc#X\	-e	.
.	.	.	.	.	.	.	.	.	4a\	.	.
!	!	!	!	!	!	!LO:TX:t=P:problem=kreska pseudotaktowa	!	!	!	!	!
.	.	.	.	.	.	2f#\	.	.	1dd	e-	.
.	.	.	.	.	.	2.e\	-le-	.	.	.	.
!	!	!	!	!	!	!	!	!	!LO:TX:t=P:problem=kreska pseudotaktowa	!	!
.	.	.	.	.	.	.	.	.	2cc#X\	-lei-	.
.	.	.	.	.	.	4e\	-i-	.	.	.	.
=4-	=4-	=4-	=4-	=4-	=4-	=4-	=4-	=4-	=4-	=4-	=4-
!	!	!	!LO:TX:t=P:problem=kreska pseudotaktowa	!	!	!	!	!	!	!	!
.	.	.	1r	.	.	4d,<\	-son	.	4dd,<\	-son	.
.	.	.	.	.	.	4d\	e-	.	4dd\	e-	.
.	.	.	.	.	.	4e\	.	.	4ccn\	-le-	.
!	!	!	!	!	!	!LO:TX:t=P:problem=kreska pseudotaktowa	!	!	!LO:TX:t=P:problem=kreska pseudotaktowa	!	!
.	.	.	.	.	.	4f#\	-lei-	.	4dd\	-i-	.
.	.	.	2.G/	Ky-	.	4g\	.	.	2b,<\	-son	.
.	.	.	.	.	.	4d\	.	.	.	.	.
*	*	*	*	*	*	*	*	*	*	*ij	*
!	!	!	!	!	!	!	!	!	!LO:TX:t=P:problem=kreska pseudotaktowa	!	!
.	.	.	.	.	.	1g\	.	.	2b\	e-	.
!	!	!	!LO:TX:t=P:problem=kreska pseudotaktowa	!	!	!	!	!	!	!	!
.	.	.	4G/	-ri-	.	.	.	.	.	.	.
=5-	=5-	=5-	=5-	=5-	=5-	=5-	=5-	=5-	=5-	=5-	=5-
*2\right	*	*	*2\right	*	*	*	*	*	*	*	*
2.D\	Ky-	.	2A\	-e	.	.	.	.	2.a\	-le-	.
!	!	!	!	!	!	!LO:TX:t=P:problem=kreska pseudotaktowa	!	!	!	!	!
.	.	.	1d	e-	.	2f#\	.	.	.	.	.
!LO:TX:t=P:problem=kreska pseudotaktowa	!	!	!	!	!	!	!	!	!LO:TX:t=P:problem=kreska pseudotaktowa	!	!
4D\	-ri-	.	.	.	.	.	.	.	4a\	-i-	.
2E\	-e	.	.	.	.	2g,<\	-son	.	2g,<\	-son	.
*	*	*	*	*	*	*	*	*	*	*Xij	*
*	*	*	*	*	*	*	*	*	*custos:b	*	*
!	!	!	!	!	!	!	!	!	!LO:TX:t=P:problem=kreska pseudotaktowa	!	!
!	!	!	!LO:TX:t=P:problem=kreska pseudotaktowa	!	!	!	!	!	!	!	!
1A\	e-	.	2c\	-lei-	.	4e\	Ky-	.	2a\	e-	.
!	!	!	!	!	!	!LO:TX:t=P:problem=kreska pseudotaktowa	!	!	!	!	!
.	.	.	.	.	.	4e\	ri-	.	.	.	.
!	!	!	!	!	!	!	!	!	!LO:LB:g=original	!	!
=6-	=6-	=6-	=6-	=6-	=6-	=6-	=6-	=6-	=6-	=6-	=6-
.	.	.	2B,<\	-son	.	4f#X\	-e	.	2b\	-le-	.
.	.	.	.	.	.	4f#\	e-	.	.	.	.
!	!	!	!	!	!	!	!	!	!LO:TX:t=P:problem=kreska pseudotaktowa	!	!
1Gn	lei-	.	4e\	Ky-	.	4g\	-le-	.	2b\	-i-	.
!	!	!	!LO:TX:t=P:problem=kreska pseudotaktowa	!	!	!LO:TX:t=P:problem=kreska pseudotaktowa	!	!	!	!	!
.	.	.	4d\	-ri-	.	4f#\	-i-	.	.	.	.
.	.	.	4c#X\	-e	.	2e,<\	-son	.	2a,<\	-son	.
.	.	.	4A\	e-	.	.	.	.	.	.	.
*	*	*	*	*	*	*	*	*	*	*ij	*
!LO:TX:t=P:problem=kreska pseudotaktowa	!	!	!	!	!	!	!	!	!LO:TX:t=P:problem=kreska pseudotaktowa	!	!
2F#\	.	.	1d\	-le-	.	2d\	e-	.	2a\	e-	.
=7-	=7-	=7-	=7-	=7-	=7-	=7-	=7-	=7-	=7-	=7-	=7-
1E	.	.	.	.	.	2.e\	-le-	.	2g\	-le-	.
!	!	!	!LO:TX:t=P:problem=kreska pseudotaktowa	!	!	!	!	!	!LO:TX:t=P:problem=kreska pseudotaktowa	!	!
.	.	.	2c#X\	-i-	.	.	.	.	2g\	-i-	.
!	!	!	!	!	!	!LO:TX:t=P:problem=kreska pseudotaktowa	!	!	!	!	!
.	.	.	.	.	.	4e\	-i-	.	.	.	.
4D,<\	-son	.	4d,<\	-son	.	4A,</	-son	.	2f#/	-son	.
*	*	*	*	*ij	*	*	*ij	*	*	*Xij	*
4D\	e-	.	4d\	e-	.	4f#\	e-	.	.	.	.
!	!	!	!	!	!	!	!	!	!LO:TX:t=P:problem=kreska pseudotaktowa	!	!
4E\	lei-	.	4cn\	-le-	.	4g\	-le-	.	2r	.	.
!LO:TX:t=P:problem=kreska pseudotaktowa	!	!	!LO:TX:t=P:problem=kreska pseudotaktowa	!	!	!	!	!	!	!	!
4F#\	.	.	4A\	-i-	.	4a\	-i-	.	.	.	.
=8-	=8-	=8-	=8-	=8-	=8-	=8-	=8-	=8-	=8-	=8-	=8-
4G\	.	.	2B,<\	-son	.	2d,<\	-son	.	0r	.	.
*	*	*	*	*Xij	*	*	*Xij	*	*	*	*
4D\	.	.	.	.	.	.	.	.	.	.	.
!	!	!	!LO:TX:t=P:problem=kreska pseudotaktowa	!	!	!LO:TX:t=P:problem=kreska pseudotaktowa	!	!	!	!	!
1G	.	.	2B\	e-	.	2d\	e-	.	.	.	.
!	!	!	!	!	!	!LO:LB:g=original	!	!	!	!	!
.	.	.	1A	-lei-	.	2.cn/	-le-	.	.	.	.
!LO:TX:t=P:problem=kreska pseudotaktowa	!	!	!	!	!	!	!	!	!	!	!
2F#,<\	-son	.	.	.	.	.	.	.	.	.	.
.	.	.	.	.	.	4c/	-i-	.	.	.	.
=9-	=9-	=9-	=9-	=9-	=9-	=9-	=9-	=9-	=9-	=9-	=9-
!	!	!	!	!	!	!	!	!	!LO:TX:t=P:problem=kreska pseudotaktowa	!	!
2.G\	Ky-	.	2G,</	-son	.	2B,</	-son	.	1r	.	.
.	.	.	4G/	Ky-	.	4B/	Ky-	.	.	.	.
!	!	!	!LO:TX:t=P:problem=kreska pseudotaktowa	!	!	!LO:TX:t=P:problem=kreska pseudotaktowa	!	!	!	!	!
4G\	-ri-	.	4G/	-ri-	.	4B/	-ri-	.	.	.	.
!	!	!	!LO:TX:t=P:problem=kreska pseudotaktowa	!	!	!	!	!	!	!	!
2A\	-e	.	1F#X	-e	.	2A/	-e	.	2.d/	Ky-	.
1d\	e-	.	.	.	.	2f#\	e-	.	.	.	.
!	!	!	!	!	!	!	!	!	!LO:TX:t=P:problem=kreska pseudotaktowa	!	!
.	.	.	.	.	.	.	.	.	4d/	-ri-	.
=10-	=10-	=10-	=10-	=10-	=10-	=10-	=10-	=10-	=10-	=10-	=10-
!	!	!	!LO:TX:t=P:problem=kreska pseudotaktowa	!	!	!	!	!	!	!	!
.	.	.	1r	.	.	2g\	-le-	.	2e/	-e	.
!	!	!	!	!	!	!LO:TX:t=P:problem=kreska pseudotaktowa	!	!	!	!	!
2c\	-lei-	.	.	.	.	2e\	-i-	.	1a	e-	.
2B,<\	-son	.	2d\	Ky-	.	2f#,<\	-son	.	.	.	.
*	*	*	*custos:c#	*	*	*	*	*	*	*	*
!	!	!	!LO:TX:t=P:problem=kreska pseudotaktowa	!	!	!	!	!	!	!	!
4E\	Ky-	.	2B\	-ri-	.	4g\	Ky-	.	1gn\	.	.
!LO:TX:t=P:problem=kreska pseudotaktowa	!	!	!	!	!	!LO:TX:t=P:problem=kreska pseudotaktowa	!	!	!	!	!
4E\	-ri-	.	.	.	.	4g\	-ri-	.	.	.	.
!	!	!	!LO:LB:g=original	!	!	!	!	!	!	!	!
=11-	=11-	=11-	=11-	=11-	=11-	=11-	=11-	=11-	=11-	=11-	=11-
4A\	-e	.	2c#X\	-e	.	2e\	-e	.	.	.	.
4A\	e-	.	.	.	.	.	.	.	.	.	.
!	!	!	!LO:TX:t=P:problem=kreska pseudotaktowa	!	!	!	!	!	!LO:TX:t=P:problem=kreska pseudotaktowa	!	!
1d	-le-	.	2d\	e-	.	2f#\	e-	.	2f#/	.	.
.	.	.	2e\	-le-	.	1gT	-lei-	.	2.e/	-le-	.
*custos:d	*	*	*	*	*	*	*	*	*	*	*
!LO:TX:t=P:problem=kreska pseudotaktowa	!	!	!	!	!	!	!	!	!	!	!
!	!	!	!LO:TX:t=P:problem=kreska pseudotaktowa	!	!	!	!	!	!	!	!
2c#X\	-i-	.	2e\	-i-	.	.	.	.	.	.	.
!	!	!	!	!	!	!	!	!	!LO:TX:t=P:problem=kreska pseudotaktowa	!	!
.	.	.	.	.	.	.	.	.	4e/	-i-	.
!LO:LB:g=original	!	!	!	!	!	!	!	!	!	!	!
=12-	=12-	=12-	=12-	=12-	=12-	=12-	=12-	=12-	=12-	=12-	=12-
4d,<\	-son	.	4f#,<\	-son	.	2f#\	-son	.	4d,</	-son	.
*	*	*	*	*	*	*	*	*	*	*ij	*
4D/	e-	.	4d\	e-	.	.	.	.	4f#/	e-	.
!	!	!	!	!	!	!LO:TX:t=P:problem=kreska pseudotaktowa	!	!	!	!	!
4E\	.	.	4cn\	-le-	.	2r	.	.	4g/	-le-	.
!LO:TX:t=P:problem=kreska pseudotaktowa	!	!	!	!	!	!	!	!	!LO:TX:t=P:problem=kreska pseudotaktowa	!	!
4F#\	.	.	4A\	-i-	.	.	.	.	4a/	-i-	.
4G\	-lei-	.	2B\	-son	.	2.G/	Ky-	.	2d,</	-son	.
*	*	*	*	*	*	*	*	*	*	*Xij	*
4D/	.	.	.	.	.	.	.	.	.	.	.
!	!	!	!LO:TX:t=P:problem=kreska pseudotaktowa	!	!	!	!	!	!	!	!
4BB/	.	.	2r	.	.	.	.	.	1g\	e-	.
!LO:TX:t=P:problem=kreska pseudotaktowa	!	!	!	!	!	!	!	!	!	!	!
4GG/	.	.	.	.	.	4G/	-ri-	.	.	.	.
=13-	=13-	=13-	=13-	=13-	=13-	=13-	=13-	=13-	=13-	=13-	=13-
!LO:TX:t=P:problem=kreska pseudotaktowa	!	!	!	!	!	!	!	!	!	!	!
1D	-son	.	2.D/	Ky-	.	2A/	-e	.	.	.	.
!	!	!	!	!	!	!	!	!	!LO:TX:t=P:problem=kreska pseudotaktowa	!	!
.	.	.	.	.	.	1d	e-	.	2f#/	-lei-	.
!	!	!	!LO:TX:t=P:problem=kreska pseudotaktowa	!	!	!	!	!	!	!	!
.	.	.	4D/	-ri-	.	.	.	.	.	.	.
00r	.	.	2E/	-e	.	.	.	.	2g,</	-son	.
!	!	!	!	!	!	!LO:TX:t=P:problem=kreska pseudotaktowa	!	!	!LO:TX:t=P:problem=kreska pseudotaktowa	!	!
.	.	.	1A\	.	.	2c/	-lei-	.	4e/	Ky-	.
*	*	*	*	*	*	*	*	*	*custos:f	*	*
.	.	.	.	.	.	.	.	.	4e/	-ri-	.
!	!	!	!	!	!	!	!	!	!LO:LB:g=original	!	!
=14-	=14-	=14-	=14-	=14-	=14-	=14-	=14-	=14-	=14-	=14-	=14-
.	.	.	.	.	.	2B,</	-son	.	4f#/	-e	.
.	.	.	.	.	.	.	.	.	4f#/	e-	.
.	.	.	1G	e-	.	4e\	Ky-	.	4g/	-le-	.
!	!	!	!	!	!	!LO:TX:t=P:problem=kreska pseudotaktowa	!	!	!LO:TX:t=P:problem=kreska pseudotaktowa	!	!
.	.	.	.	.	.	4d\	-ri-	.	4f#/	-i-	.
.	.	.	.	.	.	4c#X/	-e	.	2e,</	-son	.
.	.	.	.	.	.	4A/	.	.	.	.	.
*	*	*	*	*	*	*	*	*	*	*ij	*
!	!	!	!LO:TX:t=P:problem=kreska pseudotaktowa	!	!	!	!	!	!	!	!
.	.	.	2F#/	.	.	1d\	le-	.	2f#/	e-	.
=15-	=15-	=15-	=15-	=15-	=15-	=15-	=15-	=15-	=15-	=15-	=15-
.	.	.	2.E/	-le-	.	.	.	.	2.g\	-le-	.
!	!	!	!	!	!	!LO:TX:t=P:problem=kreska pseudotaktowa	!	!	!	!	!
.	.	.	.	.	.	2c#X\	-i-	.	.	.	.
!	!	!	!	!	!	!	!	!	!LO:TX:t=P:problem=kreska pseudotaktowa	!	!
.	.	.	4E/	-i-	.	.	.	.	4g\	-i-	.
2r	.	.	4D,</	-son	.	2d,<\	-son	.	2f#,</	-son	.
*	*	*	*	*	*	*	*	*	*	*Xij	*
.	.	.	4A/	e-	.	.	.	.	.	.	.
4D\	Ky-	.	4A/	-lei-	.	4d\	Ky-	.	4f#/	Ky-	.
!LO:TX:t=P:problem=kreska pseudotaktowa	!	!	!LO:TX:t=P:problem=kreska pseudotaktowa	!	!	!LO:TX:t=P:problem=kreska pseudotaktowa	!	!	!LO:TX:t=P:problem=kreska pseudotaktowa	!	!
4D\	-ri-	.	4d,<\	-son	.	4d\	-ri-	.	4f#/	-ri-	.
!	!	!	!	!	!	!LO:LB:g=original	!	!	!	!	!
=16-	=16-	=16-	=16-	=16-	=16-	=16-	=16-	=16-	=16-	=16-	=16-
!	!	!	!	!	!	!LO:TX:t=P:problem=kreska pseudotaktowa	!	!	!LO:TX:t=P:problem=kreska pseudotaktowa	!	!
4G\	-e	.	2B\	Ky-	.	1d	-e.	.	1g,<	-e	.
4G\	e-	.	.	.	.	.	.	.	.	.	.
4G\	-le-	.	2B\	-ri-	.	.	.	.	.	.	.
4F#\	-i-	.	.	.	.	.	.	.	.	.	.
!LO:TX:t=P:problem=kreska pseudotaktowa	!	!	!LO:TX:t=P:problem=kreska pseudotaktowa	!	!	!	!	!	!	!	!
1E	-son	.	1c	-e	.	4r	.	.	4r	.	.
.	.	.	.	.	.	4g\	e-	.	4cc\	e-	.
.	.	.	.	.	.	4g\	-le-	.	4cc\	-le-	.
!	!	!	!	!	!	!	!	!	!LO:TX:t=P:problem=kreska pseudotaktowa	!	!
.	.	.	.	.	.	4g\	-i-	.	4cc\	-i-	.
=17-	=17-	=17-	=17-	=17-	=17-	=17-	=17-	=17-	=17-	=17-	=17-
!	!	!	!	!	!	!LO:TX:t=P:problem=kreska pseudotaktowa	!	!	!LO:TX:t=P:problem=kreska pseudotaktowa	!	!
4r	.	.	4r	.	.	1f#	-son	.	1a	-son	.
4F#\	e-	.	4d\	e-	.	.	.	.	.	.	.
4F#\	-le-	.	4d\	-le-	.	.	.	.	.	.	.
4E\	-i-	.	4d\	-i-	.	.	.	.	.	.	.
!LO:TX:t=P:problem=kreska pseudotaktowa	!	!	!LO:TX:t=P:problem=kreska pseudotaktowa	!	!	!	!	!	!	!	!
1D	-son	.	1d	-son	.	4r	.	.	4r	.	.
*	*	*	*	*	*	*	*ij	*	*	*ij	*
.	.	.	.	.	.	4f#\	e-	.	4b\	e-	.
.	.	.	.	.	.	4f#\	-le-	.	4b\	-le-	.
!	!	!	!	!	!	!	!	!	!LO:TX:t=P:problem=kreska pseudotaktowa	!	!
.	.	.	.	.	.	4f#\	-i-	.	4b\	-i-	.
=18-	=18-	=18-	=18-	=18-	=18-	=18-	=18-	=18-	=18-	=18-	=18-
4r	.	.	2r	.	.	2e,<\	-son	.	2g,</	-son	.
*	*	*	*	*	*	*	*Xij	*	*	*Xij	*
4E\	e-	.	.	.	.	.	.	.	.	.	.
4E\	-le-	.	4B\	Ky-	.	4e\	Ky-	.	4g/	Ky-	.
!LO:TX:t=P:problem=kreska pseudotaktowa	!	!	!LO:TX:t=P:problem=kreska pseudotaktowa	!	!	!LO:TX:t=P:problem=kreska pseudotaktowa	!	!	!LO:TX:t=P:problem=kreska pseudotaktowa	!	!
4D\	-i-	.	4B\	-ri-	.	4e\	-ri-	.	4g/	-ri-	.
4Cn,</	-son	.	4c\	-e	.	4e\	-e	.	4a\	-e	.
*	*ij	*	*	*	*	*	*	*	*	*	*
4C/	e-	.	4c\	e-	.	4e\	e-	.	4a\	e-	.
4C/	-le-	.	4c\	-le-	.	4e\	-le-	.	4a\	-le-	.
!LO:TX:t=P:problem=kreska pseudotaktowa	!	!	!LO:TX:t=P:problem=kreska pseudotaktowa	!	!	!LO:TX:t=P:problem=kreska pseudotaktowa	!	!	!LO:TX:t=P:problem=kreska pseudotaktowa	!	!
4C/	-i-	.	4B\	-i-	.	4e\	-i-	.	4a\	-i-	.
!	!	!	!LO:LB:g=original	!	!	!	!	!	!	!	!
=19-	=19-	=19-	=19-	=19-	=19-	=19-	=19-	=19-	=19-	=19-	=19-
2D,<\	-son	.	2A,<\	-son	.	2d,<\	-son	.	2f#,</	-son	.
*	*Xij	*	*	*	*	*	*ij	*	*	*	*
!	!	!	!	!	!	!LO:TX:t=P:problem=kreska pseudotaktowa	!	!	!LO:TX:t=P:problem=kreska pseudotaktowa	!	!
1D	Ky-	.	2B\	e-	.	2g\	e-	.	2dd\	e-	.
.	.	.	2A/	-le-	.	2f#\	-le-	.	2ccn\	-lei-	.
!LO:TX:t=P:problem=kreska pseudotaktowa	!	!	!LO:TX:t=P:problem=kreska pseudotaktowa	!	!	!LO:TX:t=P:problem=kreska pseudotaktowa	!	!	!LO:TX:t=P:problem=kreska pseudotaktowa	!	!
2D\	-ri-	.	2G/	-i-	.	2g\	-i-	.	2b\	.	.
=20-	=20-	=20-	=20-	=20-	=20-	=20-	=20-	=20-	=20-	=20-	=20-
4D/	-e	.	2F#,</	-son	.	2d,<\	-son	.	2a\	.	.
4D/	e-	.	.	.	.	.	.	.	.	.	.
*	*	*	*	*ij	*	*	*Xij	*	*	*	*
!	!	!	!LO:TX:t=P:problem=kreska pseudotaktowa	!	!	!LO:TX:t=P:problem=kreska pseudotaktowa	!	!	!LO:TX:t=P:problem=kreska pseudotaktowa	!	!
1D	-lei-	.	2d\	e-	.	2g\	e-	.	2b\	.	.
!	!	!	!	!	!	!	!	!	!LO:LB:g=original	!	!
.	.	.	2c\	-le-	.	2f#\	-le-	.	2a\	.	.
*custos:D	*	*	*	*	*	*	*	*	*	*	*
!LO:TX:t=P:problem=kreska pseudotaktowa	!	!	!	!	!	!	!	!	!	!	!
!	!	!	!LO:TX:t=P:problem=kreska pseudotaktowa	!	!	!	!	!	!LO:TX:t=P:problem=kreska pseudotaktowa	!	!
2D/	-son	.	2B\	-i-	.	2g\	-i-	.	2g\	.	.
!LO:LB:g=original	!	!	!	!	!	!	!	!	!	!	!
=21-	=21-	=21-	=21-	=21-	=21-	=21-	=21-	=21-	=21-	=21-	=21-
2D\	Ky-	.	2A,<\	-son	.	2d,<\	-son	.	4f#,</	-son	.
*	*	*	*	*Xij	*	*	*	*	*	*	*
.	.	.	.	.	.	.	.	.	4a\	e-	.
!	!	!	!	!	!	!	!	!	!LO:TX:t=P:problem=kreska pseudotaktowa	!	!
4BB/	-ri-	.	4B\	Ky-	.	4d\	Ky-	.	[<2dd\	-lei-	.
!LO:TX:t=P:problem=kreska pseudotaktowa	!	!	!LO:TX:t=P:problem=kreska pseudotaktowa	!	!	!LO:TX:t=P:problem=kreska pseudotaktowa	!	!	!	!	!
4BB/	-e	.	4B\	-ri-	.	4d\	-ri-	.	.	.	.
1C	e-	.	2G,</	-e	.	4e\	-e	.	2dd\]	.	.
.	.	.	.	.	.	4e\	.	.	.	.	.
*	*	*	*	*ij	*	*	*	*	*	*	*
!	!	!	!	!	!	!	!	!	!LO:TX:t=P:problem=kreska pseudotaktowa	!	!
.	.	.	4c\	Ky-	.	4a\	lei-	.	[<2ccn\	.	.
!	!	!	!LO:TX:t=P:problem=kreska pseudotaktowa	!	!	!LO:TX:t=P:problem=kreska pseudotaktowa	!	!	!	!	!
.	.	.	4B\	-ri-	.	4g\	.	.	.	.	.
=22-	=22-	=22-	=22-	=22-	=22-	=22-	=22-	=22-	=22-	=22-	=22-
1.D	-le-	.	4A,<\	-e	.	4f#\	.	.	2cc\]	.	.
*	*	*	*	*Xij	*	*	*	*	*	*	*
.	.	.	4A\	e-	.	4d\	.	.	.	.	.
!	!	!	!	!	!	!	!	!	!LO:TX:t=P:problem=kreska pseudotaktowa	!	!
.	.	.	4B\	-lei-	.	1g	.	.	2b\	.	.
!	!	!	!LO:TX:t=P:problem=kreska pseudotaktowa	!	!	!	!	!	!	!	!
.	.	.	4G/	.	.	.	.	.	.	.	.
.	.	.	1d	.	.	.	.	.	1a	.	.
!	!	!	!	!	!	!LO:TX:t=P:problem=kreska pseudotaktowa	!	!	!	!	!
2D\	-i-	.	.	.	.	2f#\	.	.	.	.	.
=23-	=23-	=23-	=23-	=23-	=23-	=23-	=23-	=23-	=23-	=23-	=23-
!LO:TX:t=P:problem= podwójna kreska pseudotaktowa	!	!	!LO:TX:t=P:problem= podwójna kreska pseudotaktowa	!	!	!LO:TX:t=P:problem= podwójna kreska pseudotaktowa	!	!	!LO:TX:t=P:problem= podwójna kreska pseudotaktowa	!	!
0GG;>	-son.	.	0d;>	-son	.	0g;<	-son.	.	0b;>	-son.	.
!	!	!	!	!	!	!LO:LB:g=original	!	!	!	!	!
=24||-	=24||-	=24||-	=24||-	=24||-	=24||-	=24||-	=24||-	=24||-	=24||-	=24||-	=24||-
*M2/1	*	*	*M2/1	*	*	*M2/1	*	*	*M2/1	*	*
*met(c|)	*	*	*met(c|)	*	*	*met(c|)	*	*	*	*	*
!	!	!	!	!	!	!LO:TX:t=P:problem=kreska pseudotaktowa	!	!	!	!	!
*	*	*	*	*	*	*	*	*	*met(c|)	*	*
!	!	!	!	!	!	!	!	!	!LO:TX:t=P:problem=kreska pseudotaktowa	!	!
00r	.	.	00r	.	.	1ra	.	.	1g	Chri-	.
.	.	.	.	.	.	1d	Chri-	.	4dd\	-ste	.
.	.	.	.	.	.	.	.	.	4ee\	.	.
.	.	.	.	.	.	.	.	.	4dd\	.	.
!	!	!	!	!	!	!	!	!	!LO:TX:t=P:problem=kreska pseudotaktowa	!	!
.	.	.	.	.	.	.	.	.	4cc\	.	.
=25-	=25-	=25-	=25-	=25-	=25-	=25-	=25-	=25-	=25-	=25-	=25-
!	!	!	!LO:TX:t=P:problem=kreska pseudotaktowa	!	!	!	!	!	!	!	!
.	.	.	.	.	.	4g\	-ste	.	2b\	e-	.
.	.	.	.	.	.	4a\	.	.	.	.	.
.	.	.	.	.	.	4g\	.	.	1dd	.	.
!	!	!	!	!	!	!LO:TX:t=P:problem=kreska pseudotaktowa	!	!	!	!	!
.	.	.	.	.	.	4f#\	.	.	.	.	.
.	.	.	.	.	.	2e\	.	.	.	.	.
!	!	!	!	!	!	!LO:TX:t=P:problem=kreska pseudotaktowa	!	!	!	!	!
.	.	.	.	.	.	2a\	.	.	1ccn\	.	.
=26-	=26-	=26-	=26-	=26-	=26-	=26-	=26-	=26-	=26-	=26-	=26-
!LO:TX:t=P:problem=kreska pseudotaktowa	!	!	!	!	!	!	!	!	!	!	!
1r	.	.	2rG	.	.	4f#\	e-	.	.	.	.
.	.	.	.	.	.	4d\	.	.	.	.	.
!	!	!	!LO:TX:t=P:problem=kreska pseudotaktowa	!	!	!	!	!	!LO:TX:t=P:problem=kreska pseudotaktowa	!	!
.	.	.	2G/	Chri-	.	1g	-lei-	.	2b\	lei-	.
1D	Chri-	.	4d\	-ste	.	.	.	.	1a	.	.
.	.	.	4e\	.	.	.	.	.	.	.	.
!	!	!	!	!	!	!LO:TX:t=P:problem=kreska pseudotaktowa	!	!	!	!	!
.	.	.	4d\	.	.	2f#\	-i-	.	.	.	.
!	!	!	!LO:TX:t=P:problem=kreska pseudotaktowa	!	!	!	!	!	!	!	!
.	.	.	4c\	.	.	.	.	.	.	.	.
=27-	=27-	=27-	=27-	=27-	=27-	=27-	=27-	=27-	=27-	=27-	=27-
4G\	-ste	.	2B\	e-	.	2g,<\	-son	.	2g/	-son	.
4A\	e-	.	.	.	.	.	.	.	.	.	.
!	!	!	!	!	!	!	!	!	!LO:TX:t=P:problem=kreska pseudotaktowa	!	!
4G\	-le-	.	1d	.	.	2g\	e-	.	2r	.	.
!LO:TX:t=P:problem=kreska pseudotaktowa	!	!	!	!	!	!	!	!	!	!	!
4F#\	-i-	.	.	.	.	.	.	.	.	.	.
2E,<\	-son	.	.	.	.	2g\	-le-	.	2b\	X-	.
!LO:TX:t=P:problem=kreska pseudotaktowa	!	!	!	!	!	!LO:TX:t=P:problem=kreska pseudotaktowa	!	!	!LO:TX:t=P:problem=kreska pseudotaktowa	!	!
2A\	X-	.	1cn\	.	.	2e\	-i-	.	2cc\	-te	.
=28-	=28-	=28-	=28-	=28-	=28-	=28-	=28-	=28-	=28-	=28-	=28-
4F#\	-te	.	.	.	.	2f#,<\	-son	.	2a\	lei-	.
4D\	e-	.	.	.	.	.	.	.	.	.	.
!	!	!	!LO:TX:t=P:problem=kreska pseudotaktowa	!	!	!	!	!	!	!	!
1G	-le-	.	2B\	.	.	2d\	e-	.	4g,</	-son	.
!	!	!	!	!	!	!	!	!	!LO:TX:t=P:problem=kreska pseudotaktowa	!	!
.	.	.	.	.	.	.	.	.	4g/	e-	.
!	!	!	!LO:LB:g=original	!	!	!	!	!	!LO:LB:g=original	!	!
.	.	.	1A	-lei-	.	2.cn/	-le-	.	2.a\	-le-	.
!LO:TX:t=P:problem=kreska pseudotaktowa	!	!	!	!	!	!	!	!	!	!	!
2F#\	-i-	.	.	.	.	.	.	.	.	.	.
!	!	!	!	!	!	!	!	!	!LO:TX:t=P:problem=kreska pseudotaktowa	!	!
.	.	.	.	.	.	4c/	-i-	.	4a\	-i-	.
=29-	=29-	=29-	=29-	=29-	=29-	=29-	=29-	=29-	=29-	=29-	=29-
4G,<\	-son	.	4G,</	-son	.	4B,</	-son	.	4b,<\	-son	.
4GG/	e-	.	4d\	e-	.	4g\	e-	.	4dd\	e-	.
4GG/	-le-	.	4d\	-le-	.	4g\	-le-	.	4b\	.	.
!LO:TX:t=P:problem=kreska pseudotaktowa	!	!	!LO:TX:t=P:problem=kreska pseudotaktowa	!	!	!LO:TX:t=P:problem=kreska pseudotaktowa	!	!	!LO:TX:t=P:problem=kreska pseudotaktowa	!	!
4GG/	-i-	.	4d\	-i-	.	4g\	-i-	.	4g\	.	.
!	!	!	!LO:TX:t=P:problem=kreska pseudotaktowa	!	!	!	!	!	!	!	!
2D\	-son	.	1d,<	-son	.	4f#,<\	-son	.	2a\	.	.
.	.	.	.	.	.	4a\	e-	.	.	.	.
!LO:TX:t=P:problem=kreska pseudotaktowa	!	!	!	!	!	!	!	!	!	!	!
2r	.	.	.	.	.	4f#\	-lei-	.	1dd\	-lei-	.
!	!	!	!	!	!	!LO:TX:t=P:problem=kreska pseudotaktowa	!	!	!	!	!
.	.	.	.	.	.	4d\	.	.	.	.	.
=30-	=30-	=30-	=30-	=30-	=30-	=30-	=30-	=30-	=30-	=30-	=30-
0r	.	.	0r	.	.	2e\	.	.	.	.	.
!	!	!	!	!	!	!	!	!	!LO:TX:t=P:problem=kreska pseudotaktowa	!	!
.	.	.	.	.	.	1a	.	.	2ccn\	.	.
.	.	.	.	.	.	.	.	.	2b\	.	.
.	.	.	.	.	.	1g\	.	.	4ee\	.	.
!	!	!	!	!	!	!	!	!	!LO:TX:t=P:problem=kreska pseudotaktowa	!	!
.	.	.	.	.	.	.	.	.	4dd\	.	.
=31-	=31-	=31-	=31-	=31-	=31-	=31-	=31-	=31-	=31-	=31-	=31-
!LO:TX:t=P:problem=kreska pseudotaktowa	!	!	!	!	!	!	!	!	!	!	!
2r	.	.	1r	.	.	.	.	.	2cc#X\	.	.
*custos:A	*	*	*	*	*	*	*	*	*	*	*
!LO:TX:t=P:problem=kreska pseudotaktowa	!	!	!	!	!	!	!	!	!	!	!
!	!	!	!	!	!	!LO:TX:t=P:problem=kreska pseudotaktowa	!	!	!	!	!
2D/	Chri-	.	.	.	.	2f#\	.	.	1dd	.	.
!LO:LB:g=original	!	!	!	!	!	!	!	!	!	!	!
4A\	-ste	.	1A	Chri-	.	1e	.	.	.	.	.
4B\	.	.	.	.	.	.	.	.	.	.	.
!	!	!	!	!	!	!	!	!	!LO:TX:t=P:problem=kreska pseudotaktowa	!	!
4A\	e-	.	.	.	.	.	.	.	2cc#X\	.	.
!LO:TX:t=P:problem=kreska pseudotaktowa	!	!	!	!	!	!	!	!	!	!	!
4G\	-le-	.	.	.	.	.	.	.	.	.	.
=32-	=32-	=32-	=32-	=32-	=32-	=32-	=32-	=32-	=32-	=32-	=32-
2F#\	-i-	.	4d\	-ste	.	4f#,<\	-son	.	4dd,<\	-son	.
.	.	.	4e\	e-	.	4f#\	e-	.	4a\	e-	.
!LO:TX:t=P:problem=kreska pseudotaktowa	!	!	!	!	!	!	!	!	!	!	!
2F#\	-son	.	4d\	-le-	.	4f#\	-le-	.	4a\	-le-	.
*	*	*	*	*	*	*custos:g	*	*	*	*	*
!	!	!	!	!	!	!LO:TX:t=P:problem=kreska pseudotaktowa	!	!	!	!	!
.	.	.	4c#X\	-i-	.	4f#\	-i-	.	4a\	-i-	.
!	!	!	!	!	!	!	!	!	!LO:TX:t=P:problem=kreska pseudotaktowa	!	!
!	!	!	!	!	!	!LO:LB:g=original	!	!	!	!	!
4G\	e-	.	2B,<\	-son	.	2g,<\	-son	.	1b	-son	.
4A\	.	.	.	.	.	.	.	.	.	.	.
!	!	!	!LO:TX:t=P:problem=kreska pseudotaktowa	!	!	!LO:TX:t=P:problem=kreska pseudotaktowa	!	!	!	!	!
4G\	-le-	.	2B\	e-	.	2B/	Chri-	.	.	.	.
4F#\	-i-	.	.	.	.	.	.	.	.	.	.
=33-	=33-	=33-	=33-	=33-	=33-	=33-	=33-	=33-	=33-	=33-	=33-
!	!	!	!	!	!	!	!	!	!LO:TX:t=P:problem=kreska pseudotaktowa	!	!
2E,<\	-son	.	4c#X\	-lei-	.	4e\	-ste	.	1r	.	.
.	.	.	4d\	.	.	4f#\	.	.	.	.	.
!LO:TX:t=P:problem=kreska pseudotaktowa	!	!	!	!	!	!	!	!	!	!	!
2E\	e-	.	4c#\	.	.	4e\	.	.	.	.	.
!	!	!	!LO:TX:t=P:problem=kreska pseudotaktowa	!	!	!LO:TX:t=P:problem=kreska pseudotaktowa	!	!	!	!	!
.	.	.	4B\	.	.	4d\	e-	.	.	.	.
!	!	!	!LO:TX:t=P:problem=kreska pseudotaktowa	!	!	!	!	!	!	!	!
4F#\	-lei-	.	1A#X,<	-son	.	2c#X\	-lei-	.	1f#	X-	.
4G\	.	.	.	.	.	.	.	.	.	.	.
!	!	!	!	!	!	!LO:TX:t=P:problem=kreska pseudotaktowa	!	!	!	!	!
4F#\	.	.	.	.	.	2c#\	-son	.	.	.	.
4E\	.	.	.	.	.	.	.	.	.	.	.
=34-	=34-	=34-	=34-	=34-	=34-	=34-	=34-	=34-	=34-	=34-	=34-
2D,</	-son	.	4r	.	.	2d\	e-	.	4b\	-te	.
.	.	.	4f#\	e-	.	.	.	.	4cc\ny	.	.
!	!	!	!	!	!	!LO:TX:t=P:problem=kreska pseudotaktowa	!	!	!	!	!
1B	Chri-	.	4d\	-le-	.	2d\	-lei-	.	4b\	e-	.
!	!	!	!LO:TX:t=P:problem=kreska pseudotaktowa	!	!	!	!	!	!LO:TX:t=P:problem=kreska pseudotaktowa	!	!
.	.	.	4B\	-i-	.	.	.	.	4a\	.	.
.	.	.	2c#X,<\	-son	.	2e,<\	-son	.	2g\	-lei-	.
!	!	!	!	!	!	!	!	!	!LO:TX:t=P:problem=kreska pseudotaktowa	!	!
1A\	-ste	.	4f#\	e-	.	4a\	Ky-	.	2a\	-son	.
!	!	!	!LO:TX:t=P:problem=kreska pseudotaktowa	!	!	!LO:TX:t=P:problem=kreska pseudotaktowa	!	!	!	!	!
.	.	.	4e\	.	.	4g\	-ri-	.	.	.	.
=35-	=35-	=35-	=35-	=35-	=35-	=35-	=35-	=35-	=35-	=35-	=35-
*	*	*	*	*	*	*	*	*	*	*ij	*
.	.	.	2d#X\	-lei-	.	2f#X\	-e	.	2.b\	X-	.
!LO:TX:t=P:problem=kreska pseudotaktowa	!	!	!	!	!	!	!	!	!	!	!
2G\	.	.	1e	.	.	4g\	e-	.	.	.	.
!	!	!	!	!	!	!LO:TX:t=P:problem=kreska pseudotaktowa	!	!	!LO:TX:t=P:problem=kreska pseudotaktowa	!	!
.	.	.	.	.	.	4e\	.	.	4b\	-te	.
2F#\	e-	.	.	.	.	1f#	-lei-	.	2.a\	le-	.
!LO:TX:t=P:problem=kreska pseudotaktowa	!	!	!LO:TX:t=P:problem=kreska pseudotaktowa	!	!	!	!	!	!	!	!
2BB/	.	.	2d#X\	.	.	.	.	.	.	.	.
!	!	!	!	!	!	!	!	!	!LO:TX:t=P:problem=kreska pseudotaktowa	!	!
.	.	.	.	.	.	.	.	.	4a\	-i-	.
=36-	=36-	=36-	=36-	=36-	=36-	=36-	=36-	=36-	=36-	=36-	=36-
2E\	.	.	2e,<\	-son	.	2e\	-son	.	4g,<\	-son	.
*	*	*	*	*	*	*	*	*	*	*Xij	*
.	.	.	.	.	.	.	.	.	4a\	e-	.
!	!	!	!LO:TX:t=P:problem=kreska pseudotaktowa	!	!	!LO:TX:t=P:problem=kreska pseudotaktowa	!	!	!	!	!
2D/	.	.	2B\	Chri-	.	2r	.	.	1b	-lei-	.
!	!	!	!LO:LB:g=original	!	!	!LO:TX:t=P:problem=kreska pseudotaktowa	!	!	!	!	!
1Cn	-lei-	.	4e\	-ste	.	1e	Chri-	.	.	.	.
.	.	.	4e\	e-	.	.	.	.	.	.	.
!	!	!	!	!	!	!	!	!	!LO:TX:t=P:problem=kreska pseudotaktowa	!	!
.	.	.	4e\	-le-	.	.	.	.	2a\	.	.
!	!	!	!LO:TX:t=P:problem=kreska pseudotaktowa	!	!	!	!	!	!	!	!
.	.	.	4e\	-i-	.	.	.	.	.	.	.
=37-	=37-	=37-	=37-	=37-	=37-	=37-	=37-	=37-	=37-	=37-	=37-
!	!	!	!LO:TX:t=P:problem=kreska pseudotaktowa	!	!	!	!	!	!	!	!
2BB/	-son	.	1d#X	-son	.	4b\	ste	.	2b,<\	-son	.
.	.	.	.	.	.	4cc\	.	.	.	.	.
*	*	*	*	*	*	*	*	*	*custos:ee	*	*
!	!	!	!	!	!	!	!	!	!LO:TX:t=P:problem=kreska pseudotaktowa	!	!
!LO:TX:t=P:problem=kreska pseudotaktowa	!	!	!	!	!	!	!	!	!	!	!
2rC	.	.	.	.	.	4b\	.	.	2b\	Chriſ-	.
!	!	!	!	!	!	!LO:TX:t=P:problem=kreska pseudotaktowa	!	!	!	!	!
.	.	.	.	.	.	4a\	e-	.	.	.	.
!LO:TX:t=P:problem=kreska pseudotaktowa	!	!	!LO:TX:t=P:problem=kreska pseudotaktowa	!	!	!	!	!	!	!	!
!	!	!	!	!	!	!	!	!	!LO:LB:g=original	!	!
1E	Chri-	.	1re	.	.	2g\	-lei-	.	4ee\	-te	.
.	.	.	.	.	.	.	.	.	4ff#\	.	.
.	.	.	.	.	.	4g,<\	-son	.	4ee\	.	.
*	*	*	*	*	*	*	*ij	*	*	*	*
!	!	!	!	!	!	!LO:TX:t=P:problem=kreska pseudotaktowa	!	!	!	!	!
.	.	.	.	.	.	4f#\	e-	.	4dd\	.	.
=38-	=38-	=38-	=38-	=38-	=38-	=38-	=38-	=38-	=38-	=38-	=38-
4A\	-ste	.	1Any	Chri-	.	2e\	-le-	.	4ccn,<\	.	.
4B\	.	.	.	.	.	.	.	.	4cc\	e-	.
4A\	.	.	.	.	.	2e\	-i-	.	4cc\	-le-	.
4G\	.	.	.	.	.	.	.	.	4b\	-i-	.
!	!	!	!	!	!	!	!	!	!LO:TX:t=P:problem=kreska pseudotaktowa	!	!
2F#\	.	.	4d\ny	-ste	.	1f#,<	-son	.	1a	-son	.
*	*	*	*	*	*	*	*Xij	*	*	*	*
.	.	.	4e\	e-	.	.	.	.	.	.	.
!LO:TX:t=P:problem=kreska pseudotaktowa	!	!	!	!	!	!	!	!	!	!	!
2D\	e-	.	4d\	-le-	.	.	.	.	.	.	.
!	!	!	!LO:TX:t=P:problem=kreska pseudotaktowa	!	!	!	!	!	!	!	!
.	.	.	4c\ny	-i-	.	.	.	.	.	.	.
!LO:LB:g=original	!	!	!	!	!	!	!	!	!	!	!
=39-	=39-	=39-	=39-	=39-	=39-	=39-	=39-	=39-	=39-	=39-	=39-
!	!	!	!	!	!	!LO:TX:t=P:problem=kreska pseudotaktowa	!	!	!	!	!
2G\	.	.	1B,<	-son	.	[<1g	e-	.	2r	.	.
2GG/	.	.	.	.	.	.	.	.	1dd	e-	.
1C	.	.	1e	x-	.	2g]	.	.	.	.	.
.	.	.	.	.	.	4a\	.	.	1ccn\	.	.
.	.	.	.	.	.	4g\	.	.	.	.	.
=40-	=40-	=40-	=40-	=40-	=40-	=40-	=40-	=40-	=40-	=40-	=40-
1.D	-le-	.	2A\	-te	.	2f#\	.	.	.	.	.
.	.	.	4B\	e-	.	1g	le-	.	2b\	-lei-	.
.	.	.	4G/	-lei-	.	.	.	.	.	.	.
.	.	.	1d	.	.	.	.	.	1a	.	.
2D\	-i-	.	.	.	.	2f#\	-i-	.	.	.	.
=41-	=41-	=41-	=41-	=41-	=41-	=41-	=41-	=41-	=41-	=41-	=41-
!LO:TX:t=P:problem=podwójna kreska pseudotaktowa	!	!	!LO:TX:t=P:problem=podwójna kreska pseudotaktowa	!	!	!LO:TX:t=P:problem=podwójna kreska pseudotaktowa	!	!	!LO:TX:t=P:problem=kreska pseudotaktowa	!	!
0G;>	-son.	.	0d;>	-son.	.	0g;>	-son	.	0b;>	-son.	.
!	!	!	!	!	!	!LO:LB:g=original	!	!	!	!	!
=42||-	=42||-	=42||-	=42||-	=42||-	=42||-	=42||-	=42||-	=42||-	=42||-	=42||-	=42||-
*M2/1	*	*	*M2/1	*	*	*M2/1	*	*	*M2/1	*	*
*met(c|)	*	*	*met(c|)	*	*	*met(c|)	*	*	*	*	*
*	*	*	*	*	*	*	*	*	*met(c|)	*	*
!	!	!	!	!	!	!LO:TX:t=P:problem=kreska pseudotaktowa	!	!	!	!	!
00r	.	.	00r	.	.	0r	.	.	(>4g\	Ky-	.
.	.	.	.	.	.	.	.	.	4a\)	.	.
.	.	.	.	.	.	.	.	.	(>4b\	-ri-	.
!	!	!	!	!	!	!	!	!	!LO:TX:t=P:problem=kreska pseudotaktowa	!	!
.	.	.	.	.	.	.	.	.	4cc\)	.	.
.	.	.	.	.	.	.	.	.	2dd\	-e	.
!	!	!	!	!	!	!	!	!	!LO:TX:t=P:problem=kreska pseudotaktowa	!	!
.	.	.	.	.	.	.	.	.	2ee\	.	.
=43-	=43-	=43-	=43-	=43-	=43-	=43-	=43-	=43-	=43-	=43-	=43-
.	.	.	.	.	.	(>4d\	Ky-	.	2f#/	e-	.
.	.	.	.	.	.	4e\)	.	.	.	.	.
.	.	.	.	.	.	(>4f#\	-ri-	.	2dd\	.	.
!	!	!	!	!	!	!LO:TX:t=P:problem=kreska pseudotaktowa	!	!	!	!	!
.	.	.	.	.	.	4g\)	.	.	.	.	.
.	.	.	.	.	.	2a\	-e	.	2cc#X\	-le-	.
!	!	!	!	!	!	!LO:TX:t=P:problem=kreska pseudotaktowa	!	!	!LO:TX:t=P:problem=kreska pseudotaktowa	!	!
.	.	.	.	.	.	2b\	e-	.	2dd\	-i-	.
=44-	=44-	=44-	=44-	=44-	=44-	=44-	=44-	=44-	=44-	=44-	=44-
00r	.	.	0rA	.	.	2c#X/	.	.	2a,<\	-son	.
!	!	!	!	!	!	!LO:TX:t=P:problem=kreska pseudotaktowa	!	!	!LO:TX:t=P:problem=kreska pseudotaktowa	!	!
.	.	.	.	.	.	2f#\	.	.	[<2dd\	e-	.
.	.	.	.	.	.	2g\	-le-	.	2dd\]	.	.
!	!	!	!	!	!	!LO:TX:t=P:problem=kreska pseudotaktowa	!	!	!LO:TX:t=P:problem=kreska pseudotaktowa	!	!
.	.	.	.	.	.	2a\	-i-	.	2cc#X\	-lei-	.
=45-	=45-	=45-	=45-	=45-	=45-	=45-	=45-	=45-	=45-	=45-	=45-
!	!	!	!LO:TX:t=P:problem=kreska pseudotaktowa	!	!	!	!	!	!	!	!
.	.	.	1rA	.	.	4d,<\	-son	.	4dd,<\	-son	.
.	.	.	.	.	.	4d\	e-	.	4d/	e-	.
.	.	.	.	.	.	4cn\	-le-	.	4e/	-le-	.
!	!	!	!	!	!	!LO:TX:t=P:problem=kreska pseudotaktowa	!	!	!LO:TX:t=P:problem=kreska pseudotaktowa	!	!
.	.	.	.	.	.	4d\	-i-	.	4f#/	-i-	.
.	.	.	4G/	Ky-	.	2B,</	-son	.	2g,</	-son	.
.	.	.	4A/	.	.	.	.	.	.	.	.
!	!	!	!	!	!	!LO:TX:t=P:problem=kreska pseudotaktowa	!	!	!	!	!
!	!	!	!	!	!	!	!	!	!LO:LB:g=original	!	!
.	.	.	4B/	-ri-	.	2g\	e-	.	1dd\	Chri-	.
!	!	!	!LO:TX:t=P:problem=kreska pseudotaktowa	!	!	!	!	!	!	!	!
.	.	.	4c/	.	.	.	.	.	.	.	.
=46-	=46-	=46-	=46-	=46-	=46-	=46-	=46-	=46-	=46-	=46-	=46-
!LO:TX:t=P:problem=kreska pseudotaktowa	!	!	!	!	!	!	!	!	!	!	!
1r	.	.	2d\	-e	.	2f#\	-lei-	.	.	.	.
!	!	!	!LO:TX:t=P:problem=kreska pseudotaktowa	!	!	!LO:TX:t=P:problem=kreska pseudotaktowa	!	!	!LO:TX:t=P:problem=kreska pseudotaktowa	!	!
.	.	.	2e\	e-	.	2g,<\	-son	.	2cc#X\	.	.
(>4D\	Ky-	.	2F#X/	-lei-	.	2a\	Ky-	.	4dd\	ste	.
4E\)	.	.	.	.	.	.	.	.	4d/	.	.
!	!	!	!LO:TX:t=P:problem=kreska pseudotaktowa	!	!	!LO:TX:t=P:problem=kreska pseudotaktowa	!	!	!	!	!
(>4F#\	-ri-	.	2d\	.	.	2f#\	-ri-	.	1a\	e-	.
4G\)	.	.	.	.	.	.	.	.	.	.	.
!	!	!	!LO:LB:g=original	!	!	!	!	!	!	!	!
=47-	=47-	=47-	=47-	=47-	=47-	=47-	=47-	=47-	=47-	=47-	=47-
2A\	-e	.	2c#X\	.	.	2e\	-e	.	.	.	.
!LO:TX:t=P:problem=kreska pseudotaktowa	!	!	!LO:TX:t=P:problem=kreska pseudotaktowa	!	!	!LO:TX:t=P:problem=kreska pseudotaktowa	!	!	!LO:TX:t=P:problem=kreska pseudotaktowa	!	!
2B\	e-	.	2d\	.	.	2d\	lei-	.	2g#X\	-lei-	.
2C#X/	.	.	4A,</	-son	.	2c#X\	-son	.	2a,<\	-son	.
.	.	.	4A/	e-	.	.	.	.	.	.	.
!	!	!	!	!	!	!LO:TX:t=P:problem=kreska pseudotaktowa	!	!	!LO:TX:t=P:problem=kreska pseudotaktowa	!	!
2F#\	.	.	1d\	-lei-	.	2r	.	.	2a\	e-	.
=48-	=48-	=48-	=48-	=48-	=48-	=48-	=48-	=48-	=48-	=48-	=48-
2G\	le-	.	.	.	.	2.e\	Ky-	.	2b\	-le-	.
!LO:TX:t=P:problem=kreska pseudotaktowa	!	!	!LO:TX:t=P:problem=kreska pseudotaktowa	!	!	!	!	!	!LO:TX:t=P:problem=kreska pseudotaktowa	!	!
2A\	-i-	.	2c#X\	.	.	.	.	.	2a\	-i-	.
!	!	!	!	!	!	!LO:TX:t=P:problem=kreska pseudotaktowa	!	!	!	!	!
.	.	.	.	.	.	4e\	-ri-	.	.	.	.
!	!	!	!LO:TX:t=P:problem=kreska pseudotaktowa	!	!	!	!	!	!	!	!
2D,</	-son	.	1d,<	-son.	.	2.f#\	-e	.	2a,<\	-son	.
!	!	!	!	!	!	!	!	!	!LO:TX:t=P:problem=kreska pseudotaktowa	!	!
1d\	Ky-	.	.	.	.	.	.	.	2f#/	e-	.
!	!	!	!	!	!	!LO:TX:t=P:problem=kreska pseudotaktowa	!	!	!	!	!
.	.	.	.	.	.	4d\	.	.	.	.	.
!	!	!	!	!	!	!LO:LB:g=original	!	!	!	!	!
=49-	=49-	=49-	=49-	=49-	=49-	=49-	=49-	=49-	=49-	=49-	=49-
.	.	.	1r	.	.	2.e\	le-	.	2g\ny	-le-	.
!	!	!	!	!	!	!	!	!	!LO:TX:t=P:problem=kreska pseudotaktowa	!	!
1cn	-ri-	.	.	.	.	.	.	.	2a\	-i-	.
!	!	!	!	!	!	!LO:TX:t=P:problem=kreska pseudotaktowa	!	!	!	!	!
.	.	.	.	.	.	4e\	-i-	.	.	.	.
!	!	!	!	!	!	!	!	!	!LO:TX:t=P:problem=kreska pseudotaktowa	!	!
.	.	.	2r	.	.	4f#,<\	-son	.	1d,<	-son	.
.	.	.	.	.	.	4f#\	e-	.	.	.	.
!LO:TX:t=P:problem=kreska pseudotaktowa	!	!	!	!	!	!	!	!	!	!	!
2B\	-e	.	2d\	e-	.	4g\	-le-	.	.	.	.
!	!	!	!	!	!	!LO:TX:t=P:problem=kreska pseudotaktowa	!	!	!	!	!
.	.	.	.	.	.	4g\	-i-	.	.	.	.
=50-	=50-	=50-	=50-	=50-	=50-	=50-	=50-	=50-	=50-	=50-	=50-
!	!	!	!	!	!	!	!	!	!LO:TX:t=P:problem=kreska pseudotaktowa	!	!
2A\	e-	.	2cn\	-le-	.	2f#\	-son	.	1ree	.	.
!	!	!	!LO:TX:t=P:problem=kreska pseudotaktowa	!	!	!LO:TX:t=P:problem=kreska pseudotaktowa	!	!	!	!	!
2G\	.	.	2B\	-i-	.	2r	.	.	.	.	.
2F#\	.	.	2A,<\	-son	.	2r	.	.	(<4d/	Ky-	.
.	.	.	.	.	.	.	.	.	4e/)	.	.
*	*	*	*	*ij	*	*	*	*	*	*	*
*custos:c#	*	*	*	*	*	*	*	*	*	*	*
!LO:TX:t=P:problem=kreska pseudotaktowa	!	!	!	!	!	!	!	!	!	!	!
!	!	!	!LO:TX:t=P:problem=kreska pseudotaktowa	!	!	!	!	!	!	!	!
2d\	.	.	2f#X\	e-	.	1a\	Ky-	.	(<4f#/	-ri-	.
!	!	!	!	!	!	!	!	!	!LO:TX:t=P:problem=kreska pseudotaktowa	!	!
.	.	.	.	.	.	.	.	.	4g/)	.	.
!LO:LB:g=original	!	!	!	!	!	!	!	!	!	!	!
=51-	=51-	=51-	=51-	=51-	=51-	=51-	=51-	=51-	=51-	=51-	=51-
2c#X\	-le-	.	2e\	-le-	.	.	.	.	2a\	-e	.
!	!	!	!	!	!	!LO:TX:t=P:problem=kreska pseudotaktowa	!	!	!	!	!
2B\	-i-	.	2d\	-i-	.	2g#X\	-ri-	.	2b\	.	.
2A,<\	-son	.	2c#X\	-son	.	2a\	-e	.	2c#X/	e-	.
*	*	*	*	*Xij	*	*	*	*	*	*	*
!LO:TX:t=P:problem=kreska pseudotaktowa	!	!	!LO:TX:t=P:problem=kreska pseudotaktowa	!	!	!	!	!	!	!	!
2F#\	e-	.	2r	.	.	4a\	Ky-	.	1dd\	.	.
!	!	!	!	!	!	!LO:TX:t=P:problem=kreska pseudotaktowa	!	!	!	!	!
.	.	.	.	.	.	4a\	-ri	.	.	.	.
=52-	=52-	=52-	=52-	=52-	=52-	=52-	=52-	=52-	=52-	=52-	=52-
2G\	-le-	.	2.e\	Ky-	.	2b\	e	.	.	.	.
2A\	-i-	.	.	.	.	1a	.	.	1ccn	.	.
!	!	!	!LO:TX:t=P:problem=kreska pseudotaktowa	!	!	!	!	!	!	!	!
.	.	.	4e\	-ri-	.	.	.	.	.	.	.
2D,<\	-son	.	2f#\	-e	.	.	.	.	.	.	.
!LO:TX:t=P:problem=kreska pseudotaktowa	!	!	!LO:TX:t=P:problem=kreska pseudotaktowa	!	!	!	!	!	!	!	!
2G\	e-	.	2B\	e-	.	1g\ny	.	.	1b\	.	.
=53-	=53-	=53-	=53-	=53-	=53-	=53-	=53-	=53-	=53-	=53-	=53-
2c\ny	-le-	.	1e	-lei-	.	.	.	.	.	.	.
!	!	!	!	!	!	!LO:TX:t=P:problem=kreska pseudotaktowa	!	!	!LO:TX:t=P:problem=kreska pseudotaktowa	!	!
2c\	-i-	.	.	.	.	2e\	e-	.	2a\	.	.
!	!	!	!LO:TX:t=P:problem=kreska pseudotaktowa	!	!	!	!	!	!	!	!
2B,<\	-son	.	1d#X,<	-son	.	2f#\	-le-	.	0b	-son	.
4B\	Ky-	.	.	.	.	2f#\	-i-	.	.	.	.
4A\	-ri-	.	.	.	.	.	.	.	.	.	.
!	!	!	!LO:LB:g=original	!	!	!	!	!	!	!	!
=54-	=54-	=54-	=54-	=54-	=54-	=54-	=54-	=54-	=54-	=54-	=54-
!LO:TX:t=P:problem=kreska pseudotaktowa	!	!	!	!	!	!LO:TX:t=P:problem=kreska pseudotaktowa	!	!	!	!	!
1G#X	-e	.	2rc	.	.	1g#X	-son	.	.	.	.
.	.	.	4e\	Ky-	.	.	.	.	.	.	.
!	!	!	!LO:TX:t=P:problem=kreska pseudotaktowa	!	!	!	!	!	!	!	!
.	.	.	4dn\	-ri-	.	.	.	.	.	.	.
2r	.	.	2cn,<\	-e	.	2r	.	.	2re	.	.
!	!	!	!LO:TX:t=P:problem=kreska pseudotaktowa	!	!	!	!	!	!LO:TX:t=P:problem=kreska pseudotaktowa	!	!
4A\	Ky-	.	2c\	e-	.	4e\	Ky-	.	2a\	Ky-	.
!LO:TX:t=P:problem=kreska pseudotaktowa	!	!	!	!	!	!LO:TX:t=P:problem=kreska pseudotaktowa	!	!	!	!	!
4Gny\	-ri-	.	.	.	.	4e\	-ri-	.	.	.	.
!	!	!	!	!	!	!	!	!	!LO:LB:g=original	!	!
=55-	=55-	=55-	=55-	=55-	=55-	=55-	=55-	=55-	=55-	=55-	=55-
4Fn\	-e	.	(>2c\	-lei-	.	4fn\	-e	.	1a	-ri-	.
4E\	e-	.	.	.	.	4f\	e-	.	.	.	.
!	!	!	!LO:TX:t=P:problem=kreska pseudotaktowa	!	!	!	!	!	!	!	!
4D\	-le-	.	2d\)	.	.	4f\	-le-	.	.	.	.
4D\	-i-	.	.	.	.	4f\	-i-	.	.	.	.
!LO:TX:t=P:problem=kreska pseudotaktowa	!	!	!	!	!	!	!	!	!	!	!
1E	-son	.	4B,<\	-son	.	4e,<\	-son	.	2g#X,</	-e	.
*	*	*	*	*	*	*	*ij	*	*	*	*
.	.	.	4e\	e-	.	4e\	e-	.	.	.	.
!	!	!	!	!	!	!	!	!	!LO:TX:t=P:problem=kreska pseudotaktowa	!	!
.	.	.	4d\	-le-	.	4f\	-le-	.	2r	.	.
!	!	!	!LO:TX:t=P:problem=kreska pseudotaktowa	!	!	!	!	!	!	!	!
.	.	.	4e\	-i-	.	4g#X\	-i-	.	.	.	.
=56-	=56-	=56-	=56-	=56-	=56-	=56-	=56-	=56-	=56-	=56-	=56-
0r	.	.	2c,<\	-son	.	2a,<\	-son	.	(>4a\	Ky-	.
*	*	*	*	*	*	*	*Xij	*	*	*	*
.	.	.	.	.	.	.	.	.	4b\)	.	.
!	!	!	!	!	!	!LO:TX:t=P:problem=kreska pseudotaktowa	!	!	!	!	!
.	.	.	4A\	Ky-	.	[<2a\	Ky-	.	(>4ccn\	-ri-	.
!	!	!	!LO:TX:t=P:problem=kreska pseudotaktowa	!	!	!	!	!	!LO:TX:t=P:problem=kreska pseudotaktowa	!	!
.	.	.	4B\	ri-	.	.	.	.	4dd\)	.	.
.	.	.	2c\	-e	.	2a\]	.	.	2ee\	-e	.
!	!	!	!LO:TX:t=P:problem=kreska pseudotaktowa	!	!	!	!	!	!	!	!
.	.	.	2d\	e-	.	2a\	-ri-	.	2ffn\	e-	.
=57-	=57-	=57-	=57-	=57-	=57-	=57-	=57-	=57-	=57-	=57-	=57-
!LO:TX:t=P:problem=kreska pseudotaktowa	!	!	!	!	!	!	!	!	!	!	!
1r	.	.	2e\	-le-	.	4g#X\	-e	.	2b\	-lei-	.
.	.	.	.	.	.	4g#\	e-	.	.	.	.
.	.	.	2fn\	-i-	.	4a\	-le-	.	4a,<\	-son	.
!	!	!	!	!	!	!LO:TX:t=P:problem=kreska pseudotaktowa	!	!	!LO:TX:t=P:problem=kreska pseudotaktowa	!	!
.	.	.	.	.	.	4a\	-i-	.	4a\	e-	.
!	!	!	!LO:TX:t=P:problem=kreska pseudotaktowa	!	!	!LO:TX:t=P:problem=kreska pseudotaktowa	!	!	!	!	!
!	!	!	!	!	!	!LO:LB:g=original	!	!	!	!	!
2r	.	.	1e	-son	.	1g#X,<	-son	.	2b\	-le-	.
!	!	!	!	!	!	!	!	!	!LO:TX:t=P:problem=kreska pseudotaktowa	!	!
4E\	Ky-	.	.	.	.	.	.	.	2b\	-i-	.
!LO:TX:t=P:problem=kreska pseudotaktowa	!	!	!	!	!	!	!	!	!	!	!
4D\	-ri-	.	.	.	.	.	.	.	.	.	.
=58-	=58-	=58-	=58-	=58-	=58-	=58-	=58-	=58-	=58-	=58-	=58-
4Cn/	-e	.	2r	.	.	4a\	Ky-	.	2cc,<\	-son	.
4AA/	.	.	.	.	.	4gn\	-ri-	.	.	.	.
!	!	!	!	!	!	!	!	!	!LO:TX:t=P:problem=kreska pseudotaktowa	!	!
4D/	e-	.	1d	Ky-	.	4f#X\	-e	.	2a\	e-	.
!LO:TX:t=P:problem=kreska pseudotaktowa	!	!	!	!	!	!LO:TX:t=P:problem=kreska pseudotaktowa	!	!	!	!	!
4C/	.	.	.	.	.	4f#\	e-	.	.	.	.
2BB/	.	.	.	.	.	2g\	-lei-	.	2b\	-lei-	.
!LO:TX:t=P:problem=kreska pseudotaktowa	!	!	!LO:TX:t=P:problem=kreska pseudotaktowa	!	!	!LO:TX:t=P:problem=kreska pseudotaktowa	!	!	!	!	!
2GG/	.	.	2d\	-ri-	.	2g,<\	-ſon	.	4b,<\	-son	.
!	!	!	!	!	!	!	!	!	!LO:TX:t=P:problem=kreska pseudotaktowa	!	!
.	.	.	.	.	.	.	.	.	4b\	e-	.
!LO:LB:g=original	!	!	!	!	!	!	!	!	!	!	!
=59-	=59-	=59-	=59-	=59-	=59-	=59-	=59-	=59-	=59-	=59-	=59-
4C/	-lei-	.	4e\	-e	.	4g\	Ky-	.	(>4cc\	-lei-	.
4BB/	.	.	4B\	.	.	4g\	-ri-	.	4g\ny	.	.
4AA/	.	.	4c\	.	.	4f#X\	-e	.	4a\	.	.
!LO:TX:t=P:problem=kreska pseudotaktowa	!	!	!LO:TX:t=P:problem=kreska pseudotaktowa	!	!	!LO:TX:t=P:problem=kreska pseudotaktowa	!	!	!	!	!
4GG/	.	.	4d\	.	.	4g\	e-	.	4b\)	.	.
!LO:TX:t=P:problem=kreska pseudotaktowa	!	!	!	!	!	!	!	!	!LO:TX:t=P:problem=kreska pseudotaktowa	!	!
1D,<	-son	.	4d\	.	.	4f#\	.	.	1a,<	-son	.
.	.	.	4d\	e-	.	4d\	.	.	.	.	.
.	.	.	4c\	-le-	.	4e\	-le-	.	.	.	.
!	!	!	!LO:TX:t=P:problem=kreska pseudotaktowa	!	!	!LO:TX:t=P:problem=kreska pseudotaktowa	!	!	!	!	!
.	.	.	4d\	-i-	.	4f#\	-i-	.	.	.	.
!	!	!	!LO:LB:g=original	!	!	!	!	!	!	!	!
=60-	=60-	=60-	=60-	=60-	=60-	=60-	=60-	=60-	=60-	=60-	=60-
2r	.	.	2B,<\	-son	.	2g,<\	-son	.	(>4g\	Ky-	.
.	.	.	.	.	.	.	.	.	4a\)	.	.
!	!	!	!	!	!	!LO:TX:t=P:problem=kreska pseudotaktowa	!	!	!	!	!
1G	Ky-	.	1B	e-	.	[<2g\	Ky-	.	(>4b\	-ri-	.
.	.	.	.	.	.	.	.	.	4cc\)	.	.
.	.	.	.	.	.	2g\]	.	.	2dd\	-e	.
!LO:TX:t=P:problem=kreska pseudotaktowa	!	!	!LO:TX:t=P:problem=kreska pseudotaktowa	!	!	!LO:TX:t=P:problem=kreska pseudotaktowa	!	!	!	!	!
2C/	-ri-	.	2c\	-lei-	.	2g\	-ri-	.	2ee\	lei-	.
=61-	=61-	=61-	=61-	=61-	=61-	=61-	=61-	=61-	=61-	=61-	=61-
!LO:TX:t=P:problem=kreska pseudotaktowa	!	!	!	!	!	!	!	!	!	!	!
1D	-e	.	2A,</	-son	.	4d\	-e	.	2f#,</	-son	.
.	.	.	.	.	.	4d\	e-	.	.	.	.
!	!	!	!	!	!	!	!	!	!LO:TX:t=P:problem=kreska pseudotaktowa	!	!
.	.	.	4D/	Ky-	.	4d\	-le-	.	2re	.	.
!	!	!	!LO:TX:t=P:problem=kreska pseudotaktowa	!	!	!	!	!	!	!	!
.	.	.	4E/	.	.	4d\	-i-	.	.	.	.
!LO:TX:t=P:problem=kreska pseudotaktowa	!	!	!	!	!	!LO:TX:t=P:problem=kreska pseudotaktowa	!	!	!	!	!
1D	.	.	4F#/	-ri-	.	1d	-son	.	4d/	Ky-	.
.	.	.	4G/	.	.	.	.	.	4e/	.	.
.	.	.	4A/	-e	.	.	.	.	4f#/	-ri-	.
!	!	!	!LO:TX:t=P:problem=kreska pseudotaktowa	!	!	!	!	!	!	!	!
.	.	.	4B/	.	.	.	.	.	4g/	.	.
=62-	=62-	=62-	=62-	=62-	=62-	=62-	=62-	=62-	=62-	=62-	=62-
!LO:TX:t=P:problem=kreska pseudotaktowa	!	!	!LO:TX:t=P:problem=kreska pseudotaktowa	!	!	!	!	!	!	!	!
!	!	!	!	!	!	!	!	!	!LO:N:vis=0.	!	!
[<0D	-lei-	.	[<0cn	.	.	2rf	.	.	[y<0a	-e	.
.	.	.	.	.	.	4cc\	Ky-	.	.	.	.
!	!	!	!	!	!	!LO:TX:t=P:problem=kreska pseudotaktowa	!	!	!	!	!
.	.	.	.	.	.	4b\	.	.	.	.	.
.	.	.	.	.	.	4a\	-ri-	.	.	.	.
.	.	.	.	.	.	4g\	.	.	.	.	.
.	.	.	.	.	.	4f#\	-e	.	.	.	.
!	!	!	!	!	!	!LO:TX:t=P:problem=kreska pseudotaktowa	!	!	!	!	!
.	.	.	.	.	.	4e\	.	.	.	.	.
=63-	=63-	=63-	=63-	=63-	=63-	=63-	=63-	=63-	=63-	=63-	=63-
!LO:TX:t=P:problem=kreska pseudotaktowa	!	!	!	!	!	!	!	!	!	!	!
0D]	.	.	2c]	.	.	2f#\	e-	.	2a]yy	.	.
.	.	.	4B\	.	.	1g	-le-	.	2b\	e-	.
!	!	!	!LO:TX:t=P:problem=kreska pseudotaktowa	!	!	!	!	!	!	!	!
.	.	.	4G/	e-	.	.	.	.	.	.	.
.	.	.	1d	-lei-	.	.	.	.	1a	-lei-	.
.	.	.	.	.	.	2f#\	-i-	.	.	.	.
=64-	=64-	=64-	=64-	=64-	=64-	=64-	=64-	=64-	=64-	=64-	=64-
!LO:TX:t=P:problem=końcowa kreska pseudotaktowa	!	!	!LO:TX:t=P:problem=końcowa kreska pseudotaktowa	!	!	!LO:TX:t=P:problem=końcowa kreska pseudotaktowa	!	!	!LO:TX:t=P:problem=końcowa kreska pseudotaktowa	!	!
0GG;>	-son.	.	0d;>	-son.	.	0g;>	-son.	.	0b	-son.	.
=-	=-	=-	=-	=-	=-	=-	=-	=-	=-	=-	=-
*-	*-	*-	*-	*-	*-	*-	*-	*-	*-	*-	*-
!!!system-decoration: [(s1,s2,s3,s4)]
!!!RDF**kern: > = above
!!!RDF**kern: < = below
!!!EED: Antoni Szymański
!!!EEV: 2021-07-25
!!!ENC: Krzysztof Stępień
!!!END: 2021-07-02
